images/people/people-12.svg

<?xml version="1.0" standalone="no"?><!DOCTYPE svg PUBLIC "-//W3C//DTD SVG 1.1//EN" "http://www.w3.org/Graphics/SVG/1.1/DTD/svg11.dtd"><svg width="120px" height="192px" version="1.1" xmlns="http://www.w3.org/2000/svg" xmlns:xlink="http://www.w3.org/1999/xlink" xml:space="preserve" style="fill-rule:evenodd;clip-rule:evenodd;stroke-linejoin:round;stroke-miterlimit:1.41421;"><g><g id="people-12" transform="matrix(1,0,0,1,-1936.39,-48)"><g transform="matrix(1,0,0,1,0,-12)"><path d="M2002.92,133.32l-2.834,-1.889l-2.061,-5.839l-4.757,1.357l-1.51,3.709l-3.262,1.632l6.906,15.085l7.518,-14.055Z" style="fill:#72594b;fill-rule:nonzero;"/></g><g transform="matrix(1,0,0,1,0,-12)"><path d="M2010.9,169.33l1.037,5.519l-1.428,7.046l-2.572,-1.444l0.736,-6.06l-0.17,1.837l-2.392,-0.594l2.018,-4.489l2.771,-1.815Z" style="fill:#72594b;fill-rule:nonzero;"/></g><g transform="matrix(1,0,0,1,0,-12)"><path d="M1989.45,233.034l-0.853,6.195l6.039,-0.155l0.465,-6.658l-5.651,0.618Z" style="fill:#694;fill-rule:nonzero;"/></g><g transform="matrix(1,0,0,1,0,-12)"><path d="M1993.81,242.499l1.219,9.001l4.761,0l0.697,-1.975l-1.24,-8.166l-5.437,1.14Z" style="fill:#694;fill-rule:nonzero;"/></g><g transform="matrix(1,0,0,1,0,-12)"><path d="M2003.81,140.798l4.264,30.759l3.049,-1.145l-3.802,-34.065l-3.511,4.451Z" style="fill:#72594b;fill-rule:nonzero;"/></g><g transform="matrix(1,0,0,1,0,-12)"><path d="M1994.95,195.562l-0.929,46.917l5.187,-1.083l4.569,-45.989" style="fill:#72594b;fill-rule:nonzero;"/></g><g transform="matrix(1,0,0,1,0,-12)"><path d="M1995.1,178.994l-0.156,19.819l-0.736,33.835l-4.759,0.386l-2.324,-34.433l7.975,-19.607Z" style="fill:#553f37;fill-rule:nonzero;"/></g><g transform="matrix(1,0,0,1,0,-12)"><path d="M1986.39,138.344l-1.214,32.267l-3.288,-0.238l1.564,-36.123l2.938,4.094Z" style="fill:#72594b;fill-rule:nonzero;"/></g><g transform="matrix(1,0,0,1,0,-12)"><path d="M1981.88,170.277l-0.295,4.335l2.928,6.144l2.4,-1.423l-2.129,-5.506l0.358,1.809l2.021,-1.636l-2.037,-3.326l-3.246,-0.397Z" style="fill:#72594b;fill-rule:nonzero;"/></g><g transform="matrix(1,0,0,1,0,-12)"><path d="M1983.49,134.198l5.702,-2.352l2.275,5.603l8.051,0.233l2.708,-4.994l5.19,3.563l-3.485,4.605l-0.433,19.394l7.208,45.15l-29.847,0.233l6.889,-44.883l-1.314,-22.371l-2.944,-4.181Z" style="fill:#694;fill-rule:nonzero;"/></g><g transform="matrix(1,0,0,1,0,-12)"><path d="M2004.29,126.583l-1.957,-14.958l-6.967,-3.421l0.008,-0.121l-6.834,4.25l-1.332,13.918l1.748,3.249l12.982,0.5l2.352,-3.417Z" style="fill:#2a2b2a;fill-rule:nonzero;"/></g><g transform="matrix(1,0,0,1,0,-12)"><path d="M2004,162.75l6.708,42.65l-29.847,0.233l6.389,-42.383l16.75,-0.5Z" style="fill:#e4e2dc;fill-rule:nonzero;"/></g><g transform="matrix(1,0,0,1,0,-12)"><path d="M2004.29,164.5l-17.148,0l0.5,-2.75l16.148,0l0.5,2.75Z" style="fill:#2a2b2a;fill-rule:nonzero;"/></g></g></g></svg>

<?xml version="1.0" encoding="UTF-8" standalone="no"?>
<!DOCTYPE svg PUBLIC "-//W3C//DTD SVG 1.1//EN" "http://www.w3.org/Graphics/SVG/1.1/DTD/svg11.dtd">
<svg width="100%" height="100%" viewBox="0 0 140 220" version="1.1" xmlns="http://www.w3.org/2000/svg" xmlns:xlink="http://www.w3.org/1999/xlink" xml:space="preserve" xmlns:serif="http://www.serif.com/" style="fill-rule:evenodd;clip-rule:evenodd;stroke-linejoin:round;stroke-miterlimit:2;">
    <g id="people-12" transform="matrix(1.27,0,0,1.27,-2465.42,-84.8)">
        <g transform="matrix(1,0,0,1,0,-12)">
            <path d="M2002.91,133.32L2000.08,131.431L1998.02,125.592L1993.26,126.949L1991.75,130.658L1988.49,132.29L1995.4,147.375L2002.91,133.32Z" style="fill:rgb(114,89,75);fill-rule:nonzero;"/>
        </g>
        <g transform="matrix(1,0,0,1,0,-12)">
            <path d="M2010.9,169.33L2011.93,174.849L2010.51,181.895L2007.93,180.451L2008.67,174.391L2008.5,176.228L2006.11,175.634L2008.12,171.145L2010.9,169.33Z" style="fill:rgb(114,89,75);fill-rule:nonzero;"/>
        </g>
        <g transform="matrix(1,0,0,1,0,-12)">
            <path d="M1989.45,233.034L1988.6,239.229L1994.64,239.074L1995.1,232.416L1989.45,233.034Z" style="fill:rgb(102,153,68);fill-rule:nonzero;"/>
        </g>
        <g transform="matrix(1,0,0,1,0,-12)">
            <path d="M1993.81,242.499L1995.03,251.5L1999.79,251.5L2000.48,249.525L1999.24,241.359L1993.81,242.499Z" style="fill:rgb(102,153,68);fill-rule:nonzero;"/>
        </g>
        <g transform="matrix(1,0,0,1,0,-12)">
            <path d="M2003.81,140.798L2008.08,171.557L2011.12,170.412L2007.32,136.347L2003.81,140.798Z" style="fill:rgb(114,89,75);fill-rule:nonzero;"/>
        </g>
        <g transform="matrix(1,0,0,1,0,-12)">
            <path d="M1994.95,195.563L1994.02,242.48L1999.21,241.397L2003.77,195.408" style="fill:rgb(114,89,75);fill-rule:nonzero;"/>
        </g>
        <g transform="matrix(1,0,0,1,0,-12)">
            <path d="M1995.1,178.994L1994.95,198.813L1994.21,232.648L1989.45,233.034L1987.13,198.601L1995.1,178.994Z" style="fill:rgb(85,63,55);fill-rule:nonzero;"/>
        </g>
        <g transform="matrix(1,0,0,1,0,-12)">
            <path d="M1986.39,138.344L1985.18,170.611L1981.89,170.373L1983.46,134.25L1986.39,138.344Z" style="fill:rgb(114,89,75);fill-rule:nonzero;"/>
        </g>
        <g transform="matrix(1,0,0,1,0,-12)">
            <path d="M1981.88,170.277L1981.59,174.612L1984.51,180.756L1986.91,179.333L1984.79,173.827L1985.14,175.636L1987.16,174L1985.13,170.674L1981.88,170.277Z" style="fill:rgb(114,89,75);fill-rule:nonzero;"/>
        </g>
        <g transform="matrix(1,0,0,1,0,-12)">
            <path d="M1983.49,134.198L1989.19,131.846L1991.47,137.449L1999.52,137.682L2002.22,132.688L2007.41,136.251L2003.93,140.856L2003.5,160.25L2010.7,205.4L1980.86,205.633L1987.75,160.75L1986.43,138.379L1983.49,134.198Z" style="fill:rgb(102,153,68);fill-rule:nonzero;"/>
        </g>
        <g transform="matrix(1,0,0,1,0,-12)">
            <path d="M2004.29,126.583L2002.33,111.625L1995.37,108.204L1995.38,108.083L1988.54,112.333L1987.21,126.251L1988.96,129.5L2001.94,130L2004.29,126.583Z" style="fill:rgb(42,43,42);fill-rule:nonzero;"/>
        </g>
        <g transform="matrix(1,0,0,1,0,-12)">
            <path d="M2004,162.75L2010.7,205.4L1980.86,205.633L1987.25,163.25L2004,162.75Z" style="fill:rgb(228,226,220);fill-rule:nonzero;"/>
        </g>
        <g transform="matrix(1,0,0,1,0,-12)">
            <path d="M2004.29,164.5L1987.14,164.5L1987.64,161.75L2003.79,161.75L2004.29,164.5Z" style="fill:rgb(42,43,42);fill-rule:nonzero;"/>
        </g>
    </g>
</svg>
